X:50
%%vocalfont Baskerville10Pro 12
%%annotationfont Baskerville10Pro-Italic 12
%%score 1 2
%%pagewidth 8in
T:The Shepherd's Daughter
M:C
L:1/8
K:Bb
V:1 clef-treble
V:2 clef-bass octave=-1
V:1
D2|G2>G2 (AB)(cA) & B,2x2 [D^F]4|(B2>c2) B2[DGd]2 & [DG]6x2|c2>B2 (AB)(cG) & [EG]2x2 [EF]4|[DFB]6 [DGd]2|
w:There was a shep-*herd's* daugh-*ter, Came trip-ping on* the* way, And
V:2
z2|G4 D4|G,6 B,2| C4 F4|B,6 B,2|
V:1
c2>B2 A2c2 & [EG]4 [EF]4|B2>A2 G2B2 & [DF]4 [DE]4|A2>G2 G2^F2 & [CE]4 [CD]4|[B,DG]8||"^Chorus."[G,DG]4 [DGB]4|[CEA]2 [CD^F]2 [B,DG]4||
w:there, by chance, a Knight she met, which caused* her to stay. Sing, trang, dil-do dee.
V:2
C4 F,4 |B,4 E,4|A,4 D,4|G,8||B,4 G,4|C2D2 G,4|| 

